X: 241
T: Oban and Lorne Society
C: Bert Murray
R: shottish, strathspey
B: Bert Murray's "Bon Accord Collection" 1999 p.24
Z: 2011 John Chambers <jc:trillian.mit.edu>
M: 2/4
L: 1/16
K: A
|: ve>d  | c>AB>G  A2(A>B) | c>Bc>A d2(f<a) | e>fa>f  e>fe>c     | A>c e<c B2(e>d) |
y6         c>AB>G  A2(A>B) | c>Bc>A d2(f<a) | e>fa>f (e>c) (B<e) | c2A2 A2 :|
|: (c>d) | e2e>c   A2c<e   | f2f>d  A2d<f   | e>fa>f  e>fe>c     | A>c e<c B2(c>d) |
y6         e>fe>c  A2(c<e) | f2f>d  A2d<f   | e>fa>f  e>c (B<e)  | c2A2 A2 :|
|: (e>d) | c>AA>B  c>B c<e | d>Ad>e f>d f<a | e>fa>f  e>AA>c     | A>c e<c B2(e>d) |
y6         c2(A>B) c>B c<e | d>cd>e f>e f<a | e>fa>f (e>c) (B<e) | c2A2 A2 :|
|: (c>d) | e>cc>e  A>ce>c  | f>dd>f A>df>d  | c>ea>e  f>ed>c     | A>c e<c B2(c>d) |
y6         e>cc>e  f>dd>f  | e>cc>e a2(a>f) | e>fa>f  e>c (B<e)  | c2A2 A2 :|
